X: 10543
T: Doran From Kesh
R: reel
M: 4/4
K: Eminor
f2 fd e2 ed|f2 fd eBBA|f2 fd e2 dB|ABde fdde|
f2 fd efde|fgfd eB B2|dfaf bgaf|(3efg fd e2 dB||
|:ADFA B2 (3Bcd|ADFA BEED|ADFA B2 Bd|1 ABde fedB:|2 ABde fdde||

